Dominus_Dark_Funeral/scalable/apps/redshift.svg

<svg xmlns="http://www.w3.org/2000/svg" xmlns:xlink="http://www.w3.org/1999/xlink" width="48" height="48" viewBox="0 0 12.7 12.7"><defs><linearGradient id="a"><stop offset="0" stop-color="#faa"/><stop offset="1" stop-color="#ff2a2a"/></linearGradient><linearGradient id="c"><stop offset="0"/><stop offset=".54" stop-color="#434343"/><stop offset="1"/></linearGradient><linearGradient id="d"><stop offset="0" stop-color="#918e89"/><stop offset="1" stop-color="#fff"/></linearGradient><radialGradient xlink:href="#a" id="j" cx="-174.65" cy="74.21" fx="-174.65" fy="74.21" r="36.73" gradientTransform="matrix(.08024 0 0 .10715 20.36 -1.24)" gradientUnits="userSpaceOnUse"/><radialGradient xlink:href="#b" id="k" gradientUnits="userSpaceOnUse" gradientTransform="matrix(.13726 0 0 .11083 -2.9 -1.07)" cx="67.35" cy="45.49" fx="66.54" fy="41.81" r="26.53"/><linearGradient id="b"><stop offset="0" stop-color="#fff3b5"/><stop offset="1" stop-color="#fff3b5" stop-opacity="0"/></linearGradient><radialGradient xlink:href="#c" id="l" gradientUnits="userSpaceOnUse" gradientTransform="matrix(.03551 0 0 .05344 6.6 -14.7)" cx="-7" cy="455.31" fx="-7" fy="455.31" r="30.97"/><linearGradient xlink:href="#d" id="m" gradientUnits="userSpaceOnUse" gradientTransform="translate(6.6 -7.98) scale(.03551)" x1="-24.8" y1="488.73" x2="-2.21" y2="488.73"/><linearGradient xlink:href="#e" id="n" x1="-172.76" y1="11.16" x2="-172.76" y2="68.26" gradientUnits="userSpaceOnUse" gradientTransform="matrix(.06556 .06556 -.03622 .03622 20.22 12.783)"/><linearGradient id="e"><stop offset="0" stop-color="#fff"/><stop offset="1" stop-color="#fff" stop-opacity="0"/></linearGradient><linearGradient xlink:href="#f" id="h" x1="1" y1="6.35" x2="11.69" y2="6.35" gradientUnits="userSpaceOnUse"/><linearGradient id="f"><stop offset="0" stop-color="#7c916f"/><stop offset=".5" stop-color="#dee3db"/><stop offset="1" stop-color="#7c916f"/></linearGradient><linearGradient xlink:href="#g" id="i" x1="3.09" y1="4.79" x2="14.65" y2="11.95" gradientUnits="userSpaceOnUse"/><linearGradient id="g"><stop stop-color="#020000" offset="0"/><stop stop-opacity="0" stop-color="#020000" offset="1"/></linearGradient></defs><path d="M6.36.1c-1.54 0-2.78.28-3.7.86a3.67 3.67 0 0 0-1.65 3.26c0 1.91 1.54 4.47 2 5.2.55.85 1.14 1.61 1.66 2.16.68.7 1.2 1.03 1.69 1.03.48 0 1-.33 1.69-1.03A15.2 15.2 0 0 0 9.7 9.43c.47-.74 2-3.3 2-5.21 0-1.42-.57-2.54-1.65-3.25A6.75 6.75 0 0 0 6.35.1z" fill="url(#h)"/><path d="M7.44 12.06c.19-.14.36-.26.58-.48a15.2 15.2 0 0 0 1.65-2.15c.23-.37.73-1.2 1.17-2.17.22-.48.43-1 .58-1.52.07-.23.07-.45.1-.67l-3.3-3.32-.92 3.6-1.37 5.2z" opacity=".55" fill="url(#i)"/><path d="M6.35.1C4.81.1 3.57.38 2.66.96A3.67 3.67 0 0 0 1 4.22c0 1.91 1.54 4.47 2.01 5.2.54.85 1.13 1.61 1.65 2.16.68.7 1.21 1.03 1.69 1.03s1.01-.33 1.69-1.03a15.2 15.2 0 0 0 1.65-2.15c.47-.74 2-3.3 2-5.21 0-1.42-.57-2.54-1.65-3.25A6.75 6.75 0 0 0 6.35.1zm0 .03C6.91.15 7.44.2 7.9.31a5.82 5.82 0 0 1 1.6.66 3.65 3.65 0 0 1 1.24 1.36c.14.27.25.57.32.88a4.61 4.61 0 0 1-.14 2.53c-.15.52-.36 1.04-.58 1.52-.44.97-.95 1.8-1.18 2.17a15.2 15.2 0 0 1-1.65 2.15 4.9 4.9 0 0 1-.92.78.96.96 0 0 1-.24.1.96.96 0 0 1-.24-.1 4.76 4.76 0 0 1-.92-.78 14.41 14.41 0 0 1-1.65-2.15 19.2 19.2 0 0 1-1.18-2.17c-.22-.48-.43-1-.58-1.52a4.6 4.6 0 0 1-.14-2.52 3.73 3.73 0 0 1 .84-1.64 3.65 3.65 0 0 1 1.45-1A6.83 6.83 0 0 1 6.35.13z" opacity=".2"/><path d="M6.35 1.06a2.95 2.95 0 0 1 2.57 4.4c-.35.67-1.04 1.51-1.15 2.33-.06.34-.06.48-.38.53-.27.04-.64.07-.94.08h-.2c-.3-.01-.67-.04-.94-.08-.32-.05-.31-.2-.38-.53-.1-.78-.74-1.6-1.1-2.26l-.02-.03a2.95 2.95 0 0 1 2.54-4.44z" fill="url(#j)"/><circle r="2.94" cy="3.98" cx="6.34" opacity=".6" fill="url(#k)"/><path d="M5.26 9.88l.43.43c.02.02.3.07.64.07s.62-.05.66-.07l.47-.42a6.27 6.27 0 0 0-1.12-.06c-.57 0-.99 0-1.08.05z" fill="url(#l)"/><path d="M6.34 10.48c-.23 0-.42.03-.42.06 0 .04.19.07.42.07.23 0 .42-.03.42-.07 0-.03-.19-.06-.42-.06z" fill="#6a6a6a"/><path d="M5.05 8.18v.37a.1.1 0 0 1 .08.1c-.01.13-.1.06-.1.18 0 .1.1.08.1.19-.01.13-.1.06-.1.18 0 .14.1.06.1.18-.01.13-.1.06-.1.18 0 .1.1.08.1.19 0 .02.02.04.13.15h.02c.05.04.5.07 1.06.07.55 0 1.02-.01 1.08-.05.1-.1.23-.07.23-.16 0-.13-.1-.06-.1-.19 0-.12.09-.04.1-.18 0-.12-.1-.05-.1-.18 0-.1.1-.09.1-.19 0-.12-.1-.05-.1-.18 0-.05.03-.09.08-.1v-.56c0 .05-.58.1-1.29.1a4.68 4.68 0 0 1-1.28-.1zm.64 2.13l.24.24c.01 0 .2.02.41.02.21 0 .39-.01.41-.02L7 10.3a4.1 4.1 0 0 1-.65.03c-.34 0-.63-.01-.65-.03z" fill="url(#m)"/><path d="M8.99 4.11c-.27.55-1.12.3-2.09-.67-.96-.96-1.21-1.82-.67-2.09.54-.26 1.46-.02 2.12.64.64.65.9 1.57.64 2.12z" fill="url(#n)"/></svg>

<?xml version="1.0" encoding="UTF-8" standalone="no"?>
<svg
   xmlns:dc="http://purl.org/dc/elements/1.1/"
   xmlns:cc="http://creativecommons.org/ns#"
   xmlns:rdf="http://www.w3.org/1999/02/22-rdf-syntax-ns#"
   xmlns:svg="http://www.w3.org/2000/svg"
   xmlns="http://www.w3.org/2000/svg"
   xmlns:xlink="http://www.w3.org/1999/xlink"
   xmlns:sodipodi="http://sodipodi.sourceforge.net/DTD/sodipodi-0.dtd"
   xmlns:inkscape="http://www.inkscape.org/namespaces/inkscape"
   width="48"
   height="48"
   viewBox="0 0 12.7 12.7"
   version="1.1"
   id="svg68"
   sodipodi:docname="redshift.svg"
   inkscape:version="0.92.4 (5da689c313, 2019-01-14)">
  <metadata
     id="metadata72">
    <rdf:RDF>
      <cc:Work
         rdf:about="">
        <dc:format>image/svg+xml</dc:format>
        <dc:type
           rdf:resource="http://purl.org/dc/dcmitype/StillImage" />
        <dc:title></dc:title>
      </cc:Work>
    </rdf:RDF>
  </metadata>
  <sodipodi:namedview
     pagecolor="#ffffff"
     bordercolor="#666666"
     borderopacity="1"
     objecttolerance="10"
     gridtolerance="10"
     guidetolerance="10"
     inkscape:pageopacity="0"
     inkscape:pageshadow="2"
     inkscape:window-width="1112"
     inkscape:window-height="480"
     id="namedview70"
     showgrid="false"
     inkscape:zoom="4.9166667"
     inkscape:cx="2.1355932"
     inkscape:cy="24"
     inkscape:window-x="0"
     inkscape:window-y="25"
     inkscape:window-maximized="0"
     inkscape:current-layer="svg68" />
  <defs
     id="defs48">
    <linearGradient
       id="a">
      <stop
         offset="0"
         stop-color="#faa"
         id="stop2" />
      <stop
         offset="1"
         stop-color="#ff2a2a"
         id="stop4" />
    </linearGradient>
    <linearGradient
       id="c">
      <stop
         offset="0"
         id="stop7" />
      <stop
         offset=".54"
         stop-color="#434343"
         id="stop9" />
      <stop
         offset="1"
         id="stop11" />
    </linearGradient>
    <linearGradient
       id="d">
      <stop
         offset="0"
         stop-color="#918e89"
         id="stop14" />
      <stop
         offset="1"
         stop-color="#fff"
         id="stop16" />
    </linearGradient>
    <radialGradient
       xlink:href="#a"
       id="j"
       cx="-174.65"
       cy="74.21"
       fx="-174.65"
       fy="74.21"
       r="36.73"
       gradientTransform="matrix(0.08024,0,0,0.10715,20.36,-1.24)"
       gradientUnits="userSpaceOnUse" />
    <radialGradient
       xlink:href="#b"
       id="k"
       gradientUnits="userSpaceOnUse"
       gradientTransform="matrix(0.13726,0,0,0.11083,-2.9,-1.07)"
       cx="67.35"
       cy="45.49"
       fx="66.54"
       fy="41.81"
       r="26.53" />
    <linearGradient
       id="b">
      <stop
         offset="0"
         stop-color="#fff3b5"
         id="stop21" />
      <stop
         offset="1"
         stop-color="#fff3b5"
         stop-opacity="0"
         id="stop23" />
    </linearGradient>
    <radialGradient
       xlink:href="#c"
       id="l"
       gradientUnits="userSpaceOnUse"
       gradientTransform="matrix(0.03551,0,0,0.05344,6.6,-14.7)"
       cx="-7"
       cy="455.31"
       fx="-7"
       fy="455.31"
       r="30.97" />
    <linearGradient
       xlink:href="#d"
       id="m"
       gradientUnits="userSpaceOnUse"
       gradientTransform="matrix(0.03551,0,0,0.03551,6.6,-7.98)"
       x1="-24.8"
       y1="488.73"
       x2="-2.21"
       y2="488.73" />
    <linearGradient
       xlink:href="#e"
       id="n"
       x1="-172.76"
       y1="11.16"
       x2="-172.76"
       y2="68.26"
       gradientUnits="userSpaceOnUse"
       gradientTransform="matrix(0.06556,0.06556,-0.03622,0.03622,20.22,12.783)" />
    <linearGradient
       id="e">
      <stop
         offset="0"
         stop-color="#fff"
         id="stop29" />
      <stop
         offset="1"
         stop-color="#fff"
         stop-opacity="0"
         id="stop31" />
    </linearGradient>
    <linearGradient
       xlink:href="#f"
       id="h"
       x1="1"
       y1="6.35"
       x2="11.69"
       y2="6.35"
       gradientUnits="userSpaceOnUse" />
    <linearGradient
       id="f">
      <stop
         offset="0"
         stop-color="#7c916f"
         id="stop35" />
      <stop
         offset=".5"
         stop-color="#dee3db"
         id="stop37" />
      <stop
         offset="1"
         stop-color="#7c916f"
         id="stop39" />
    </linearGradient>
    <linearGradient
       xlink:href="#g"
       id="i"
       x1="3.09"
       y1="4.79"
       x2="14.65"
       y2="11.95"
       gradientUnits="userSpaceOnUse" />
    <linearGradient
       id="g">
      <stop
         stop-color="#020000"
         offset="0"
         id="stop43" />
      <stop
         stop-opacity="0"
         stop-color="#020000"
         offset="1"
         id="stop45" />
    </linearGradient>
  </defs>
  <path
     d="M 6.36,0.1 C 4.82,0.1 3.58,0.38 2.66,0.96 A 3.67,3.67 0 0 0 1.01,4.22 c 0,1.91 1.54,4.47 2,5.2 0.55,0.85 1.14,1.61 1.66,2.16 0.68,0.7 1.2,1.03 1.69,1.03 0.48,0 1,-0.33 1.69,-1.03 A 15.2,15.2 0 0 0 9.7,9.43 c 0.47,-0.74 2,-3.3 2,-5.21 0,-1.42 -0.57,-2.54 -1.65,-3.25 A 6.75,6.75 0 0 0 6.35,0.1 Z"
     id="path50"
     style="fill:url(#h)"
     inkscape:connector-curvature="0" />
  <path
     d="M 7.44,12.06 C 7.63,11.92 7.8,11.8 8.02,11.58 A 15.2,15.2 0 0 0 9.67,9.43 c 0.23,-0.37 0.73,-1.2 1.17,-2.17 0.22,-0.48 0.43,-1 0.58,-1.52 0.07,-0.23 0.07,-0.45 0.1,-0.67 L 8.22,1.75 7.3,5.35 5.93,10.55 Z"
     id="path52"
     style="opacity:0.55;fill:url(#i)"
     inkscape:connector-curvature="0" />
  <path
     d="M 6.35,0.1 C 4.81,0.1 3.57,0.38 2.66,0.96 A 3.67,3.67 0 0 0 1,4.22 c 0,1.91 1.54,4.47 2.01,5.2 0.54,0.85 1.13,1.61 1.65,2.16 0.68,0.7 1.21,1.03 1.69,1.03 0.48,0 1.01,-0.33 1.69,-1.03 A 15.2,15.2 0 0 0 9.69,9.43 c 0.47,-0.74 2,-3.3 2,-5.21 0,-1.42 -0.57,-2.54 -1.65,-3.25 A 6.75,6.75 0 0 0 6.35,0.1 Z m 0,0.03 C 6.91,0.15 7.44,0.2 7.9,0.31 a 5.82,5.82 0 0 1 1.6,0.66 3.65,3.65 0 0 1 1.24,1.36 c 0.14,0.27 0.25,0.57 0.32,0.88 A 4.61,4.61 0 0 1 10.92,5.74 C 10.77,6.26 10.56,6.78 10.34,7.26 9.9,8.23 9.39,9.06 9.16,9.43 A 15.2,15.2 0 0 1 7.51,11.58 4.9,4.9 0 0 1 6.59,12.36 0.96,0.96 0 0 1 6.35,12.46 0.96,0.96 0 0 1 6.11,12.36 4.76,4.76 0 0 1 5.19,11.58 14.41,14.41 0 0 1 3.54,9.43 19.2,19.2 0 0 1 2.36,7.26 C 2.14,6.78 1.93,6.26 1.78,5.74 A 4.6,4.6 0 0 1 1.64,3.22 3.73,3.73 0 0 1 2.48,1.58 3.65,3.65 0 0 1 3.93,0.58 6.83,6.83 0 0 1 6.35,0.13 Z"
     id="path54"
     inkscape:connector-curvature="0"
     style="opacity:0.2" />
  <path
     d="m 6.35,1.06 a 2.95,2.95 0 0 1 2.57,4.4 C 8.57,6.13 7.88,6.97 7.77,7.79 7.71,8.13 7.71,8.27 7.39,8.32 7.12,8.36 6.75,8.39 6.45,8.4 H 6.25 C 5.95,8.39 5.58,8.36 5.31,8.32 4.99,8.27 5,8.12 4.93,7.79 4.83,7.01 4.19,6.19 3.83,5.53 L 3.81,5.5 A 2.95,2.95 0 0 1 6.35,1.06 Z"
     id="path56"
     style="fill:url(#j)"
     inkscape:connector-curvature="0" />
  <circle
     r="2.9400001"
     cy="3.98"
     cx="6.3400002"
     id="circle58"
     style="opacity:0.6;fill:url(#k)" />
  <path
     d="m 5.26,9.88 0.43,0.43 c 0.02,0.02 0.3,0.07 0.64,0.07 0.34,0 0.62,-0.05 0.66,-0.07 L 7.46,9.89 A 6.27,6.27 0 0 0 6.34,9.83 c -0.57,0 -0.99,0 -1.08,0.05 z"
     id="path60"
     style="fill:url(#l)"
     inkscape:connector-curvature="0" />
  <path
     d="m 6.34,10.48 c -0.23,0 -0.42,0.03 -0.42,0.06 0,0.04 0.19,0.07 0.42,0.07 0.23,0 0.42,-0.03 0.42,-0.07 0,-0.03 -0.19,-0.06 -0.42,-0.06 z"
     id="path62"
     inkscape:connector-curvature="0"
     style="fill:#6a6a6a" />
  <path
     d="m 5.05,8.18 v 0.37 a 0.1,0.1 0 0 1 0.08,0.1 c -0.01,0.13 -0.1,0.06 -0.1,0.18 0,0.1 0.1,0.08 0.1,0.19 -0.01,0.13 -0.1,0.06 -0.1,0.18 0,0.14 0.1,0.06 0.1,0.18 -0.01,0.13 -0.1,0.06 -0.1,0.18 0,0.1 0.1,0.08 0.1,0.19 0,0.02 0.02,0.04 0.13,0.15 h 0.02 c 0.05,0.04 0.5,0.07 1.06,0.07 0.55,0 1.02,-0.01 1.08,-0.05 0.1,-0.1 0.23,-0.07 0.23,-0.16 0,-0.13 -0.1,-0.06 -0.1,-0.19 0,-0.12 0.09,-0.04 0.1,-0.18 0,-0.12 -0.1,-0.05 -0.1,-0.18 0,-0.1 0.1,-0.09 0.1,-0.19 0,-0.12 -0.1,-0.05 -0.1,-0.18 0,-0.05 0.03,-0.09 0.08,-0.1 V 8.18 c 0,0.05 -0.58,0.1 -1.29,0.1 A 4.68,4.68 0 0 1 5.06,8.18 Z m 0.64,2.13 0.24,0.24 c 0.01,0 0.2,0.02 0.41,0.02 0.21,0 0.39,-0.01 0.41,-0.02 L 7,10.3 A 4.1,4.1 0 0 1 6.35,10.33 C 6.01,10.33 5.72,10.32 5.7,10.3 Z"
     id="path64"
     style="fill:url(#m)"
     inkscape:connector-curvature="0" />
  <path
     d="M 8.99,4.11 C 8.72,4.66 7.87,4.41 6.9,3.44 5.94,2.48 5.69,1.62 6.23,1.35 6.77,1.09 7.69,1.33 8.35,1.99 8.99,2.64 9.25,3.56 8.99,4.11 Z"
     id="path66"
     style="fill:url(#n)"
     inkscape:connector-curvature="0" />
</svg>
